X:75
T:score164
L:1/8
Q:1/4=96
M:3/8
I:linebreak $
K:A
!pp!!8va(! (d'"_sempre staccato" z c' | z b) z | (c' z e' | z a) z | (b z d' | z g) z |$ (a z b | %7
 z c') z | (d' z c' | z b) z | (c' z e' | z a) z | (b z d' |$ z g) z | a z e' | a' z z!8va)! |] %16
